icons/im.svg

<?xml version="1.0" ?>
<svg xmlns="http://www.w3.org/2000/svg" xmlns:ev="http://www.w3.org/2001/xml-events" xmlns:xlink="http://www.w3.org/1999/xlink" baseProfile="full" height="600px" version="1.1" viewBox="352.21568793603853 -1027.6195776996087 9535.806189605413 12296.60255594478" width="466px">
	<defs/>
	<path d="M 7957.0,10171.0 C 7893.0,10133.0 7818.0,10095.0 7792.0,10085.0 C 7766.0,10075.0 7630.0,10018.0 7490.0,9958.0 C 7096.0,9789.0 6929.0,9740.0 6750.0,9740.0 C 6680.0,9740.0 6665.0,9736.0 6608.0,9706.0 C 6448.0,9622.0 6231.0,9473.0 5830.0,9175.0 C 5673.0,9058.0 5506.0,8938.0 5460.0,8908.0 C 5322.0,8818.0 5276.0,8777.0 5217.0,8688.0 C 5102.0,8515.0 5053.0,8386.0 5040.0,8230.0 C 5028.0,8076.0 4977.0,7875.0 4924.0,7769.0 C 4911.0,7744.0 4879.0,7704.0 4851.0,7681.0 C 4815.0,7651.0 4783.0,7608.0 4737.0,7527.0 C 4592.0,7274.0 4539.0,7137.0 4460.0,6815.0 C 4385.0,6509.0 4363.0,6453.0 4270.0,6315.0 C 4244.0,6277.0 4201.0,6202.0 4174.0,6150.0 C 4120.0,6044.0 4089.0,6006.0 3815.0,5705.0 C 3459.0,5315.0 3431.0,5282.0 3388.0,5192.0 C 3348.0,5109.0 3348.0,5108.0 3252.0,5046.0 C 3056.0,4919.0 2775.0,4760.0 2747.0,4760.0 C 2739.0,4760.0 2718.0,4771.0 2702.0,4785.0 C 2685.0,4799.0 2668.0,4810.0 2664.0,4810.0 C 2659.0,4810.0 2642.0,4778.0 2627.0,4740.0 C 2602.0,4678.0 2594.0,4668.0 2556.0,4652.0 C 2517.0,4634.0 2432.0,4540.0 2351.0,4422.0 C 2320.0,4378.0 2321.0,4364.0 2364.0,4241.0 C 2407.0,4118.0 2408.0,4089.0 2375.0,4018.0 C 2358.0,3982.0 2350.0,3947.0 2350.0,3910.0 C 2350.0,3880.0 2343.0,3812.0 2335.0,3760.0 C 2314.0,3629.0 2263.0,3546.0 2108.0,3384.0 C 2044.0,3317.0 1984.0,3247.0 1975.0,3229.0 C 1961.0,3203.0 1959.0,3178.0 1962.0,3106.0 C 1967.0,2991.0 1990.0,2939.0 2064.0,2867.0 C 2117.0,2816.0 2120.0,2810.0 2120.0,2764.0 C 2120.0,2737.0 2111.0,2678.0 2100.0,2632.0 L 2080.0,2549.0 L 2110.0,2487.0 L 2140.0,2425.0 L 2100.0,2266.0 C 2075.0,2167.0 2060.0,2085.0 2060.0,2046.0 C 2060.0,1992.0 2056.0,1979.0 2024.0,1935.0 C 1944.0,1825.0 1871.0,1708.0 1859.0,1673.0 C 1853.0,1652.0 1839.0,1612.0 1828.0,1583.0 C 1810.0,1533.0 1809.0,1532.0 1781.0,1543.0 C 1741.0,1558.0 1713.0,1547.0 1643.0,1491.0 C 1598.0,1454.0 1580.0,1432.0 1575.0,1408.0 C 1566.0,1365.0 1540.0,1324.0 1469.0,1239.0 C 1391.0,1145.0 1381.0,1089.0 1431.0,1018.0 C 1450.0,992.0 1457.0,990.0 1518.0,989.0 C 1606.0,989.0 1652.0,973.0 1664.0,938.0 C 1671.0,918.0 1669.0,905.0 1657.0,886.0 C 1640.0,861.0 1631.0,857.0 1558.0,845.0 C 1526.0,840.0 1517.0,832.0 1487.0,777.0 C 1430.0,677.0 1395.0,634.0 1333.0,592.0 C 1263.0,544.0 1238.0,516.0 1220.0,470.0 C 1213.0,451.0 1194.0,404.0 1178.0,367.0 C 1139.0,276.0 1142.0,234.0 1190.0,204.0 C 1264.0,157.0 1288.0,129.0 1312.0,67.0 L 1336.0,5.0 L 1381.0,2.0 C 1406.0,0.0 1449.0,3.0 1476.0,7.0 C 1514.0,14.0 1525.0,20.0 1527.0,35.0 C 1528.0,46.0 1532.0,80.0 1535.0,111.0 L 1541.0,167.0 L 1655.0,166.0 C 1763.0,165.0 1769.0,166.0 1795.0,190.0 C 1831.0,223.0 1866.0,293.0 1886.0,374.0 C 1896.0,415.0 1908.0,440.0 1916.0,440.0 C 1924.0,440.0 1960.0,424.0 1997.0,404.0 C 2048.0,377.0 2072.0,370.0 2094.0,374.0 C 2160.0,387.0 2165.0,421.0 2119.0,536.0 C 2103.0,579.0 2090.0,625.0 2092.0,639.0 C 2095.0,666.0 2092.0,666.0 2185.0,657.0 C 2203.0,655.0 2206.0,662.0 2210.0,722.0 C 2214.0,779.0 2219.0,794.0 2242.0,817.0 C 2269.0,843.0 2274.0,844.0 2432.0,853.0 C 2713.0,868.0 2765.0,857.0 2796.0,780.0 C 2806.0,756.0 2837.0,719.0 2879.0,682.0 C 2918.0,647.0 2954.0,605.0 2965.0,580.0 C 2983.0,540.0 2983.0,537.0 2966.0,490.0 C 2926.0,378.0 2990.0,307.0 3178.0,250.0 C 3219.0,238.0 3258.0,231.0 3266.0,234.0 C 3288.0,243.0 3310.0,303.0 3310.0,356.0 C 3310.0,449.0 3367.0,516.0 3518.0,602.0 C 3642.0,672.0 3675.0,678.0 3779.0,645.0 C 3864.0,618.0 3935.0,572.0 3960.0,527.0 C 3973.0,503.0 3973.0,494.0 3957.0,433.0 C 3937.0,355.0 3892.0,259.0 3821.0,141.0 C 3793.0,95.0 3771.0,55.0 3773.0,54.0 C 3776.0,50.0 3957.0,10.0 3969.0,10.0 C 3986.0,10.0 4033.0,86.0 4140.0,285.0 C 4196.0,390.0 4263.0,511.0 4288.0,554.0 L 4334.0,633.0 L 4309.0,652.0 C 4256.0,695.0 4140.0,813.0 4140.0,824.0 C 4140.0,852.0 4245.0,992.0 4322.0,1066.0 C 4426.0,1166.0 4529.0,1236.0 4674.0,1306.0 L 4785.0,1360.0 L 4958.0,1360.0 C 5152.0,1360.0 5163.0,1363.0 5223.0,1429.0 C 5252.0,1461.0 5262.0,1484.0 5276.0,1551.0 C 5286.0,1596.0 5303.0,1647.0 5315.0,1664.0 C 5326.0,1681.0 5372.0,1717.0 5418.0,1744.0 L 5500.0,1792.0 L 5500.0,1869.0 C 5501.0,1949.0 5516.0,2009.0 5546.0,2041.0 C 5606.0,2108.0 5774.0,2138.0 5885.0,2102.0 C 5929.0,2087.0 5950.0,2085.0 5965.0,2092.0 C 5976.0,2098.0 6030.0,2146.0 6085.0,2199.0 C 6213.0,2323.0 6260.0,2360.0 6340.0,2400.0 C 6430.0,2445.0 6538.0,2518.0 6556.0,2546.0 C 6581.0,2584.0 6548.0,2640.0 6437.0,2750.0 C 6377.0,2808.0 6340.0,2852.0 6340.0,2865.0 C 6340.0,2920.0 6423.0,3053.0 6511.0,3141.0 C 6598.0,3228.0 6613.0,3234.0 6744.0,3226.0 C 6847.0,3220.0 6861.0,3221.0 6935.0,3245.0 C 7070.0,3289.0 7250.0,3396.0 7250.0,3431.0 C 7250.0,3470.0 7318.0,3522.0 7407.0,3553.0 C 7452.0,3569.0 7509.0,3595.0 7534.0,3610.0 C 7577.0,3637.0 7586.0,3654.0 7624.0,3765.0 C 7626.0,3771.0 7654.0,3809.0 7687.0,3850.0 C 7809.0,4005.0 7836.0,4061.0 7812.0,4107.0 C 7806.0,4118.0 7766.0,4169.0 7724.0,4221.0 C 7638.0,4326.0 7592.0,4413.0 7584.0,4486.0 C 7579.0,4529.0 7584.0,4545.0 7618.0,4615.0 C 7661.0,4703.0 7718.0,4783.0 7766.0,4824.0 C 7784.0,4838.0 7835.0,4867.0 7881.0,4888.0 C 8029.0,4956.0 8084.0,5050.0 8130.0,5310.0 C 8158.0,5466.0 8184.0,5515.0 8334.0,5690.0 C 8491.0,5873.0 8516.0,5914.0 8530.0,6008.0 C 8543.0,6103.0 8567.0,6140.0 8699.0,6270.0 C 8820.0,6390.0 8874.0,6454.0 8889.0,6493.0 C 8895.0,6508.0 8908.0,6563.0 8919.0,6615.0 C 8941.0,6724.0 8963.0,6760.0 9024.0,6788.0 C 9055.0,6803.0 9071.0,6818.0 9079.0,6841.0 C 9095.0,6888.0 9092.0,6936.0 9070.0,6979.0 C 9019.0,7080.0 8878.0,7143.0 8576.0,7199.0 C 8468.0,7219.0 8446.0,7229.0 8367.0,7292.0 L 8339.0,7315.0 L 8314.0,7282.0 C 8296.0,7260.0 8280.0,7250.0 8262.0,7250.0 C 8218.0,7250.0 8112.0,7319.0 8025.0,7405.0 L 7943.0,7485.0 L 7907.0,7635.0 C 7865.0,7804.0 7835.0,7977.0 7825.0,8095.0 C 7808.0,8299.0 7886.0,8656.0 8011.0,8946.0 C 8083.0,9113.0 8108.0,9191.0 8125.0,9295.0 C 8150.0,9454.0 8180.0,9849.0 8180.0,10030.0 L 8180.0,10206.0 L 8145.0,10223.0 C 8125.0,10232.0 8102.0,10240.0 8092.0,10240.0 C 8083.0,10240.0 8022.0,10209.0 7957.0,10171.0" fill="pink"/>
</svg>

<?xml version="1.0" standalone="no"?>
<!DOCTYPE svg PUBLIC "-//W3C//DTD SVG 20010904//EN"
 "http://www.w3.org/TR/2001/REC-SVG-20010904/DTD/svg10.dtd">
<svg version="1.0" xmlns="http://www.w3.org/2000/svg"
 width="1024.000000pt" height="1024.000000pt" viewBox="0 0 1024.000000 1024.000000"
 preserveAspectRatio="xMidYMid meet">
<metadata>
Created by potrace 1.10, written by Peter Selinger 2001-2011
</metadata>
<g transform="translate(0.000000,1024.000000) scale(0.100000,-0.100000)"
fill="#000000" stroke="none">
<path d="M7957 10171 c-64 -38 -139 -76 -165 -86 -26 -10 -162 -67 -302 -127
-394 -169 -561 -218 -740 -218 -70 0 -85 -4 -142 -34 -160 -84 -377 -233 -778
-531 -157 -117 -324 -237 -370 -267 -138 -90 -184 -131 -243 -220 -115 -173
-164 -302 -177 -458 -12 -154 -63 -355 -116 -461 -13 -25 -45 -65 -73 -88 -36
-30 -68 -73 -114 -154 -145 -253 -198 -390 -277 -712 -75 -306 -97 -362 -190
-500 -26 -38 -69 -113 -96 -165 -54 -106 -85 -144 -359 -445 -356 -390 -384
-423 -427 -513 -40 -83 -40 -84 -136 -146 -196 -127 -477 -286 -505 -286 -8 0
-29 11 -45 25 -17 14 -34 25 -38 25 -5 0 -22 -32 -37 -70 -25 -62 -33 -72 -71
-88 -39 -18 -124 -112 -205 -230 -31 -44 -30 -58 13 -181 43 -123 44 -152 11
-223 -17 -36 -25 -71 -25 -108 0 -30 -7 -98 -15 -150 -21 -131 -72 -214 -227
-376 -64 -67 -124 -137 -133 -155 -14 -26 -16 -51 -13 -123 5 -115 28 -167
102 -239 53 -51 56 -57 56 -103 0 -27 -9 -86 -20 -132 l-20 -83 30 -62 30 -62
-40 -159 c-25 -99 -40 -181 -40 -220 0 -54 -4 -67 -36 -111 -80 -110 -153
-227 -165 -262 -6 -21 -20 -61 -31 -90 -18 -50 -19 -51 -47 -40 -40 15 -68 4
-138 -52 -45 -37 -63 -59 -68 -83 -9 -43 -35 -84 -106 -169 -78 -94 -88 -150
-38 -221 19 -26 26 -28 87 -29 88 0 134 -16 146 -51 7 -20 5 -33 -7 -52 -17
-25 -26 -29 -99 -41 -32 -5 -41 -13 -71 -68 -57 -100 -92 -143 -154 -185 -70
-48 -95 -76 -113 -122 -7 -19 -26 -66 -42 -103 -39 -91 -36 -133 12 -163 74
-47 98 -75 122 -137 l24 -62 45 -3 c25 -2 68 1 95 5 38 7 49 13 51 28 1 11 5
45 8 76 l6 56 114 -1 c108 -1 114 0 140 24 36 33 71 103 91 184 10 41 22 66
30 66 8 0 44 -16 81 -36 51 -27 75 -34 97 -30 66 13 71 47 25 162 -16 43 -29
89 -27 103 3 27 0 27 93 18 18 -2 21 5 25 65 4 57 9 72 32 95 27 26 32 27 190
36 281 15 333 4 364 -73 10 -24 41 -61 83 -98 39 -35 75 -77 86 -102 18 -40
18 -43 1 -90 -40 -112 24 -183 212 -240 41 -12 80 -19 88 -16 22 9 44 69 44
122 0 93 57 160 208 246 124 70 157 76 261 43 85 -27 156 -73 181 -118 13 -24
13 -33 -3 -94 -20 -78 -65 -174 -136 -292 -28 -46 -50 -86 -48 -87 3 -4 184
-44 196 -44 17 0 64 76 171 275 56 105 123 226 148 269 l46 79 -25 19 c-53 43
-169 161 -169 172 0 28 105 168 182 242 104 100 207 170 352 240 l111 54 173
0 c194 0 205 3 265 69 29 32 39 55 53 122 10 45 27 96 39 113 11 17 57 53 103
80 l82 48 0 77 c1 80 16 140 46 172 60 67 228 97 339 61 44 -15 65 -17 80 -10
11 6 65 54 120 107 128 124 175 161 255 201 90 45 198 118 216 146 25 38 -8
94 -119 204 -60 58 -97 102 -97 115 0 55 83 188 171 276 87 87 102 93 233 85
103 -6 117 -5 191 19 135 44 315 151 315 186 0 39 68 91 157 122 45 16 102 42
127 57 43 27 52 44 90 155 2 6 30 44 63 85 122 155 149 211 125 257 -6 11 -46
62 -88 114 -86 105 -132 192 -140 265 -5 43 0 59 34 129 43 88 100 168 148
209 18 14 69 43 115 64 148 68 203 162 249 422 28 156 54 205 204 380 157 183
182 224 196 318 13 95 37 132 169 262 121 120 175 184 190 223 6 15 19 70 30
122 22 109 44 145 105 173 31 15 47 30 55 53 16 47 13 95 -9 138 -51 101 -192
164 -494 220 -108 20 -130 30 -209 93 l-28 23 -25 -33 c-18 -22 -34 -32 -52
-32 -44 0 -150 69 -237 155 l-82 80 -36 150 c-42 169 -72 342 -82 460 -17 204
61 561 186 851 72 167 97 245 114 349 25 159 55 554 55 735 l0 176 -35 17
c-20 9 -43 17 -53 17 -9 0 -70 -31 -135 -69z"/>
</g>
</svg>
